X: 411
T: Renjia honghuo zan zuonan
L: 1/8
M: 2/4
K: Bb
c'> c'c'2 [I:setbarnb 1]| 
c' f' b g | 
b> g f/ g/ f/ d/ | 
c4 | 
f> gb2 | 
b f b g | 
f d f g | 
f4 |]

@@@ Tune index: 9285
